assets/img/braze_icons/camera-plus.svg

<svg fill="none" height="24" viewBox="0 0 24 24" width="24" xmlns="http://www.w3.org/2000/svg"><g fill="#801ed7"><path d="m20 2c0-.55228-.4477-1-1-1s-1 .44772-1 1v2h-2c-.5523 0-1 .44772-1 1s.4477 1 1 1h2v2c0 .55228.4477 1 1 1s1-.44772 1-1v-2h2c.5523 0 1-.44772 1-1s-.4477-1-1-1h-2z"/><path clip-rule="evenodd" d="m14.5 2.25453c0-.14057-.114-.25453-.2545-.25453h-7.4868c-.80495-.00001-1.46934-.00002-2.01052.0442-.5621.04592-1.0788.14448-1.56414.39178-.75265.38349-1.36457.99541-1.74806 1.74806-.24729.48534-.34586 1.00204-.39178 1.56414-.044221.54118-.044211 1.20554-.0442 2.01049v8.48263c-.000011.805-.000021 1.4693.0442 2.0105.04592.5621.14449 1.0788.39178 1.5642.38349.7526.99541 1.3645 1.74806 1.748.48534.2473 1.00204.3459 1.56414.3918.54119.0442 1.20554.0442 2.0105.0442h10.48262c.805 0 1.4693 0 2.0105-.0442.5621-.0459 1.0788-.1445 1.5642-.3918.7526-.3835 1.3645-.9954 1.748-1.748.2473-.4854.3459-1.0021.3918-1.5642.0442-.5412.0442-1.2055.0442-2.0105v-7.39264c0-.29085 0-.43628-.0298-.51867-.0619-.17125-.1289-.23828-.3002-.3002-.0824-.02979-.2783-.02979-.67-.02979 0 1.65685-1.3431 3-3 3s-3-1.34315-3-3c-1.6569 0-3-1.34315-3-3 0-1.0579.5476-1.9879 1.3747-2.52205.0764-.04929.1253-.13256.1253-.22342zm-2.5 13.74547c2.2091 0 4-1.7909 4-4 0-2.20914-1.7909-4-4-4-2.20914 0-4 1.79086-4 4 0 2.2091 1.79086 4 4 4z" fill-rule="evenodd"/></g></svg>

<svg width="24" height="24" viewBox="0 0 24 24" fill="none" xmlns="http://www.w3.org/2000/svg">
<path d="M20 2C20 1.44772 19.5523 1 19 1C18.4477 1 18 1.44772 18 2V4H16C15.4477 4 15 4.44772 15 5C15 5.55228 15.4477 6 16 6H18V8C18 8.55228 18.4477 9 19 9C19.5523 9 20 8.55228 20 8V6H22C22.5523 6 23 5.55228 23 5C23 4.44772 22.5523 4 22 4H20V2Z" fill="#801ED7"/>
<path fill-rule="evenodd" clip-rule="evenodd" d="M14.5 2.25453C14.5 2.11396 14.386 2 14.2455 2H6.7587C5.95375 1.99999 5.28936 1.99998 4.74818 2.0442C4.18608 2.09012 3.66938 2.18868 3.18404 2.43598C2.43139 2.81947 1.81947 3.43139 1.43598 4.18404C1.18869 4.66938 1.09012 5.18608 1.0442 5.74818C0.999979 6.28936 0.999989 6.95372 1 7.75867V16.2413C0.999989 17.0463 0.999979 17.7106 1.0442 18.2518C1.09012 18.8139 1.18869 19.3306 1.43598 19.816C1.81947 20.5686 2.43139 21.1805 3.18404 21.564C3.66938 21.8113 4.18608 21.9099 4.74818 21.9558C5.28937 22 5.95372 22 6.75868 22H17.2413C18.0463 22 18.7106 22 19.2518 21.9558C19.8139 21.9099 20.3306 21.8113 20.816 21.564C21.5686 21.1805 22.1805 20.5686 22.564 19.816C22.8113 19.3306 22.9099 18.8139 22.9558 18.2518C23 17.7106 23 17.0463 23 16.2413V8.84866C23 8.55781 23 8.41238 22.9702 8.32999C22.9083 8.15874 22.8413 8.09171 22.67 8.02979C22.5876 8 22.3917 8 22 8C22 9.65685 20.6569 11 19 11C17.3431 11 16 9.65685 16 8C14.3431 8 13 6.65685 13 5C13 3.9421 13.5476 3.0121 14.3747 2.47795C14.4511 2.42866 14.5 2.34539 14.5 2.25453ZM12 16C14.2091 16 16 14.2091 16 12C16 9.79086 14.2091 8 12 8C9.79086 8 8 9.79086 8 12C8 14.2091 9.79086 16 12 16Z" fill="#801ED7"/>
</svg>
